Yaru++/apps/16/transmission.svg

<svg height="24" width="24" xmlns="http://www.w3.org/2000/svg"><path d="m-22.4005 11.72732a11 10.999995 0 0 0 10.94556 10 11 10.999995 0 0 0 10.94995-10z" fill="#fff" opacity=".25"/><path d="m12 1.9999996c-5.454545-.000009-10 4.5454544-10 10.0000004 0 5.522845 4.477155 10.000001 10 10 5.522854 0 10-4.477155 10-10 0-5.522846-4.477146-9.9999913-10-10.0000004zm0 .909091c5.282727 0 9.090909 3.8081907 9.090909 9.0909094 0 5.282727-3.808191 9.090909-9.090909 9.090909s-9.090909-3.808182-9.090909-9.090909c0-5.2827187 3.808182-9.0909094 9.090909-9.0909094zm0 2.4804687-3.306108 3.9666194 1.985085-.3302557v2.974077 2.975853l-1.985085-.330256 3.306108 3.966619 3.306108-3.966619-1.98331.330256v-2.975853-2.974077l1.98331.3302557z" fill="#808080"/></svg>

<?xml version="1.0" encoding="UTF-8" standalone="no"?>
<svg
   xmlns:osb="http://www.openswatchbook.org/uri/2009/osb"
   xmlns:dc="http://purl.org/dc/elements/1.1/"
   xmlns:cc="http://creativecommons.org/ns#"
   xmlns:rdf="http://www.w3.org/1999/02/22-rdf-syntax-ns#"
   xmlns:svg="http://www.w3.org/2000/svg"
   xmlns="http://www.w3.org/2000/svg"
   xmlns:sodipodi="http://sodipodi.sourceforge.net/DTD/sodipodi-0.dtd"
   xmlns:inkscape="http://www.inkscape.org/namespaces/inkscape"
   height="24"
   id="svg7384"
   version="1.1"
   width="24"
   sodipodi:docname="transmission-tray-icon.svg"
   inkscape:version="0.92.4 (5da689c313, 2019-01-14)">
  <sodipodi:namedview
     pagecolor="#ffffff"
     bordercolor="#666666"
     borderopacity="1"
     objecttolerance="10"
     gridtolerance="10"
     guidetolerance="10"
     inkscape:pageopacity="0"
     inkscape:pageshadow="2"
     inkscape:window-width="1920"
     inkscape:window-height="1016"
     id="namedview9496"
     showgrid="true"
     inkscape:zoom="29.28834"
     inkscape:cx="9.2577378"
     inkscape:cy="13.136355"
     inkscape:window-x="0"
     inkscape:window-y="27"
     inkscape:window-maximized="1"
     inkscape:current-layer="svg7384"
     showguides="true"
     inkscape:guide-bbox="true">
    <inkscape:grid
       type="xygrid"
       id="grid10041" />
    <sodipodi:guide
       position="-3,-0.67186912"
       orientation="0,1"
       id="guide961"
       inkscape:locked="false" />
  </sodipodi:namedview>
  <metadata
     id="metadata20854">
    <rdf:RDF>
      <cc:Work
         rdf:about="">
        <dc:title></dc:title>
        <dc:format>image/svg+xml</dc:format>
        <dc:type
           rdf:resource="http://purl.org/dc/dcmitype/StillImage" />
      </cc:Work>
    </rdf:RDF>
  </metadata>
  <defs
     id="defs7386">
    <linearGradient
       id="linearGradient5606"
       osb:paint="solid">
      <stop
         id="stop5608"
         offset="0"
         style="stop-color:#000000;stop-opacity:1;" />
    </linearGradient>
    <linearGradient
       id="linearGradient4526"
       osb:paint="solid">
      <stop
         id="stop4528"
         offset="0"
         style="stop-color:#ffffff;stop-opacity:1;" />
    </linearGradient>
    <linearGradient
       id="linearGradient3600-4"
       osb:paint="gradient">
      <stop
         id="stop3602-7"
         offset="0"
         style="stop-color:#f4f4f4;stop-opacity:1" />
      <stop
         id="stop3604-6"
         offset="1"
         style="stop-color:#dbdbdb;stop-opacity:1" />
    </linearGradient>
    <clipPath
       clipPathUnits="userSpaceOnUse"
       id="clipPath999-9-0-54">
      <path
         inkscape:connector-curvature="0"
         style="color:#000000;display:inline;overflow:visible;visibility:visible;opacity:1;fill:#5d5d5d;fill-opacity:1;fill-rule:nonzero;stroke:none;stroke-width:3.82599998;stroke-linecap:butt;stroke-linejoin:round;stroke-miterlimit:4;stroke-dasharray:none;stroke-dashoffset:0;stroke-opacity:1;marker:none;enable-background:accumulate"
         d="m 152,68 c -48.60106,0 -88,39.39894 -88,88 0,48.60106 39.39894,88 88,88 48.60106,0 88,-39.39894 88,-88 0,-48.60106 -39.39894,-88 -88,-88 z"
         id="path1001-4-6-7"
         sodipodi:nodetypes="sssss" />
    </clipPath>
    <clipPath
       clipPathUnits="userSpaceOnUse"
       id="clipPath999-9-0-5">
      <path
         inkscape:connector-curvature="0"
         style="color:#000000;display:inline;overflow:visible;visibility:visible;opacity:1;fill:#5d5d5d;fill-opacity:1;fill-rule:nonzero;stroke:none;stroke-width:3.82599998;stroke-linecap:butt;stroke-linejoin:round;stroke-miterlimit:4;stroke-dasharray:none;stroke-dashoffset:0;stroke-opacity:1;marker:none;enable-background:accumulate"
         d="m 152,68 c -48.60106,0 -88,39.39894 -88,88 0,48.60106 39.39894,88 88,88 48.60106,0 88,-39.39894 88,-88 0,-48.60106 -39.39894,-88 -88,-88 z"
         id="path1001-4-6-6"
         sodipodi:nodetypes="sssss" />
    </clipPath>
  </defs>
  <g
     id="layer9"
     label="status"
     style="display:inline;fill:#9a5555;fill-opacity:1"
     transform="matrix(1.4285714,0,0,1.4285714,-1075.1571,210.90625)" />
  <g
     id="layer2"
     style="display:inline;fill:#9a5555;fill-opacity:1"
     transform="matrix(1.4285714,0,0,1.4285714,-730.87115,-313.37946)" />
  <g
     id="layer4"
     style="display:inline;fill:#9a5555;fill-opacity:1"
     transform="matrix(1.4285714,0,0,1.4285714,-730.87115,-313.37946)" />
  <g
     id="g1812"
     style="display:inline;fill:#9a5555;fill-opacity:1"
     transform="matrix(1.4285714,0,0,1.4285714,-730.87115,-313.37946)" />
  <g
     id="g6217"
     style="display:inline;fill:#9a5555;fill-opacity:1"
     transform="matrix(1.4285714,0,0,1.4285714,-730.87115,-313.37946)" />
  <g
     id="layer3"
     style="display:inline;fill:#9a5555;fill-opacity:1"
     transform="matrix(1.4285714,0,0,1.4285714,-730.87115,-313.37946)" />
  <g
     id="layer1"
     style="display:inline;fill:#9a5555;fill-opacity:1"
     transform="matrix(1.4285714,0,0,1.4285714,-730.87115,-313.37946)" />
  <path
     style="display:inline;opacity:0.25;fill:#ffffff;fill-opacity:1;stroke:none;stroke-width:0.99999994;stroke-linecap:round;stroke-linejoin:round;stroke-miterlimit:4;stroke-dasharray:none;stroke-opacity:1;enable-background:new"
     d="m -22.4005,11.72732 a 11,10.999995 0 0 0 10.94556,10 11,10.999995 0 0 0 10.94995,-10 z"
     id="rect12119-01"
     inkscape:connector-curvature="0" />
  <path
     style="display:inline;opacity:1;vector-effect:none;fill:#808080;fill-opacity:1;stroke:none;stroke-width:0.16528927;stroke-linecap:round;stroke-linejoin:round;stroke-miterlimit:4;stroke-dasharray:none;stroke-dashoffset:0;stroke-opacity:1;enable-background:new"
     d="M 12,1.9999996 C 6.545455,1.9999906 2,6.545454 2,12 2,17.522845 6.477155,22.000001 12,22 17.522854,22 22,17.522845 22,12 22,6.477154 17.522854,2.0000087 12,1.9999996 Z m 0,0.909091 c 5.282727,0 9.090909,3.8081907 9.090909,9.0909094 0,5.282727 -3.808191,9.090909 -9.090909,9.090909 C 6.717282,21.090909 2.909091,17.282727 2.909091,12 2.909091,6.7172813 6.717273,2.9090906 12,2.9090906 Z M 12,5.3895593 8.693892,9.3561787 10.678977,9.025923 V 12 14.975853 L 8.693892,14.645597 12,18.612216 l 3.306108,-3.966619 -1.98331,0.330256 V 12 9.025923 l 1.98331,0.3302557 z"
     id="rect6778-3-6-7"
     inkscape:connector-curvature="0" />
</svg>
